X: 1
T: Memories
M: 4/4
L: 1/8
R: hornpipe
K: Dmaj
F/G/[|Adfd BdAF/G/|Afdf e3F/G/|Adfa gGBe/d/|cAgc d3|]
 c/d/[|eAce dfAe/f/|gAfA e3F/G/|Adfa gGBe/d/|cAgc d3|]
